X: 11701
Q: "Slow."
M: 3/4
L: 1/16
K: Am
|:\
e4 g8 | {g}a3e e6 d2 | {d}c2A/G/c/A/ A8 | g6 f2 {f}e2dc |\
c2de {c}A8 | e4 g8 | {g}a3e e6 d2 | {d}c2AG A4 A4 |\
{A}a4 g8 |
{g}a3e e6 d2 | {d}c2A/G/c/A/ A8 | {A}c4 A2G2 A4 |\


